X:1
T:Bell in Flag
M:6/8
L:1/8
R:jig
K:G
e |: cBA BAG | EGG GAB | cBA BAG | Eee dcB |
cBA BAG | EGG GAB | cde dgB | cAA A2 e ::
gef gef | gef g2 g | eaa eaa | eaa agf |
gef gef | gef g2 g | cde dgB | cAA A2 e :|
